Adwaita++-Light/panel/22/signal-unread-1.svg

<svg height="22" width="22" xmlns="http://www.w3.org/2000/svg">
  <path d="m11.017578 3c-3.8927716 0-7.1292188 2.5954436-7.8339842 6.0273438a7.9814888 7.5 0 0 0 -.1835938 1.5761722 7.9814888 7.5 0 0 0 1.2324219 3.976562 3 3 0 0 1 1.7675781-.580078 3 3 0 0 1 .4707031.041016l-.3730469-.410157-.0234374-.027343-.0214844-.029297-.2734375-.41211-.0136719-.021484-.0117188-.023437-.0097656-.015626.5976563-.318359.2675781-.177734.0175781.027343.2324219.34961.6152344.679687.3515625.265625-.3476563.464844a3 3 0 0 1 .796875.65625l.3144532-.644531.4726562.232422.941406.269531.328125.044922-.136719.992187-.351562-.048828-.0332031-.005859-.0332031-.009766-1.03125-.291015-.0429688-.011719-.0410156-.021484-.0507813-.025391a3 3 0 0 1 .3886719 1.470703 3 3 0 0 1 -.1191406.826172 7.9814888 7.5 0 0 0 2.1015626.277344 7.9814888 7.5 0 0 0 7.835937-6.107422c.116729-.5057.181641-1.03016.181641-1.56836 0-4.1026992-3.574646-7.4277341-7.982422-7.427734zm-.021484 2h.021484.023438l.5625.0253906.021484.0019532.023438.0039062.544921.0742188.033203.0058593.033204.0097657.15625.0429687-.271485.9628906-.113281-.0332031-.5-.0703125-.513672-.0214844-.513672.0214844-.138672.0195313-.136718-.9902344.160156-.0214844.023437-.0039062.021485-.0019532zm-1.8046878.2871094.2695313.9609375-.3984375.1152343-.8515625.4199219-.359375.2695313-.5976563-.8007813.3964844-.2988281.0371094-.0273438.0410156-.0195312.9335938-.4609375.0410156-.0214844.0429688-.0117187zm4.2636718.1972656.853516.421875.041015.0195312.035157.0273438.814453.6113281.035156.0292969.033203.0351562.019531.0214844-.482421.4394532-.205079.2753906-.773437-.5820313-.8125-.4023437zm-7.0078124 1.5.7382813.671875-.3261719.359375-.2363281.359375-.2070313.3925781-.1738281.4277344-.9257813-.3730469.1835938-.4550781.0097656-.0253906.0117188-.0214844.2324218-.4375.0117188-.0234375.0136719-.0214844.2734375-.4121094.0214844-.0292968.0234374-.0273438zm9.5546874.46875.255859.3847656.013672.0214844.011719.0234375.232422.4375.011719.0214844.009765.0253906.185547.4589844.009766.0253906.007812.0253906.134766.4785157.007812.0273437.003907.0273437.007812.046875-.923828.15625-.056641.015625-.001953-.0058593h-.001953l-.003906-.0195313-.121094-.4316406-.162109-.4042969-.208985-.3925781-.242187-.3671875zm-10.9335936 2.4472656.5351562.0898438.453125.0253906-.0253906.484375.0234375.453125.0742187.439453.1210938.429688-.9609375.271484-.1269531-.449219-.0078125-.027343-.0039063-.027344-.0820312-.496094-.0039063-.027344-.0019531-.027344-.0292969-.511718v-.027344-.027344l.0292969-.5117185.0019531-.0273437.0039063-.0273438zm10.9394526.5722654.996094.054688-.029297.511718-.001953.027344-.003906.027344-.083984.496094-.003907.027344-.007812.027343-.132813.478516-.007812.025391-.009766.02539-.18164.451172-.925782-.373047.169922-.423828.123047-.435547.074219-.439453zm-.808593 2.488282.738281.671874-.669922.738282-.033203.035156-.035156.029297-.802735.601562-.597656-.798828.763672-.576172zm-2.179688 1.664062.054688.195312.351562.710938-.050781.023438-.041016.021484-.042968.011719-1.03125.291015-.033204.009766-.033203.005859-.544921.074219-.023438.003906-.021484.001953-.322266.013672-.044922-1 .294922-.011719.501953-.070312.945313-.269531.003906-.001953z" fill="#444"/>
  <circle cx="6" cy="17" fill="#4285f4" r="2"/>
</svg>

<svg xmlns="http://www.w3.org/2000/svg" width="22" height="22" version="1.1">
 <defs>
  <style id="current-color-scheme" type="text/css">
   .ColorScheme-Text { color:#444444; } .ColorScheme-Highlight { color:#4285f4; }
  </style>
 </defs>
 <path style="fill:currentColor" class="ColorScheme-Text" d="M 11.017578 3 C 7.1248064 3 3.8883592 5.5954436 3.1835938 9.0273438 A 7.9814888 7.5 0 0 0 3 10.603516 A 7.9814888 7.5 0 0 0 4.2324219 14.580078 A 3 3 0 0 1 6 14 A 3 3 0 0 1 6.4707031 14.041016 L 6.0976562 13.630859 L 6.0742188 13.603516 L 6.0527344 13.574219 L 5.7792969 13.162109 L 5.765625 13.140625 L 5.7539062 13.117188 L 5.7441406 13.101562 L 6.3417969 12.783203 L 6.609375 12.605469 L 6.6269531 12.632812 L 6.859375 12.982422 L 7.4746094 13.662109 L 7.8261719 13.927734 L 7.4785156 14.392578 A 3 3 0 0 1 8.2753906 15.048828 L 8.5898438 14.404297 L 9.0625 14.636719 L 10.003906 14.90625 L 10.332031 14.951172 L 10.195312 15.943359 L 9.84375 15.894531 L 9.8105469 15.888672 L 9.7773438 15.878906 L 8.7460938 15.587891 L 8.703125 15.576172 L 8.6621094 15.554688 L 8.6113281 15.529297 A 3 3 0 0 1 9 17 A 3 3 0 0 1 8.8808594 17.826172 A 7.9814888 7.5 0 0 0 10.982422 18.103516 A 7.9814888 7.5 0 0 0 18.818359 11.996094 C 18.935088 11.490394 19 10.965934 19 10.427734 C 19 6.3250348 15.425354 2.9999999 11.017578 3 z M 10.996094 5 L 11.017578 5 L 11.041016 5 L 11.603516 5.0253906 L 11.625 5.0273438 L 11.648438 5.03125 L 12.193359 5.1054688 L 12.226562 5.1113281 L 12.259766 5.1210938 L 12.416016 5.1640625 L 12.144531 6.1269531 L 12.03125 6.09375 L 11.53125 6.0234375 L 11.017578 6.0019531 L 10.503906 6.0234375 L 10.365234 6.0429688 L 10.228516 5.0527344 L 10.388672 5.03125 L 10.412109 5.0273438 L 10.433594 5.0253906 L 10.996094 5 z M 9.1914062 5.2871094 L 9.4609375 6.2480469 L 9.0625 6.3632812 L 8.2109375 6.7832031 L 7.8515625 7.0527344 L 7.2539062 6.2519531 L 7.6503906 5.953125 L 7.6875 5.9257812 L 7.7285156 5.90625 L 8.6621094 5.4453125 L 8.703125 5.4238281 L 8.7460938 5.4121094 L 9.1914062 5.2871094 z M 13.455078 5.484375 L 14.308594 5.90625 L 14.349609 5.9257812 L 14.384766 5.953125 L 15.199219 6.5644531 L 15.234375 6.59375 L 15.267578 6.6289062 L 15.287109 6.6503906 L 14.804688 7.0898438 L 14.599609 7.3652344 L 13.826172 6.7832031 L 13.013672 6.3808594 L 13.455078 5.484375 z M 6.4472656 6.984375 L 7.1855469 7.65625 L 6.859375 8.015625 L 6.6230469 8.375 L 6.4160156 8.7675781 L 6.2421875 9.1953125 L 5.3164062 8.8222656 L 5.5 8.3671875 L 5.5097656 8.3417969 L 5.5214844 8.3203125 L 5.7539062 7.8828125 L 5.765625 7.859375 L 5.7792969 7.8378906 L 6.0527344 7.4257812 L 6.0742188 7.3964844 L 6.0976562 7.3691406 L 6.4472656 6.984375 z M 16.001953 7.453125 L 16.257812 7.8378906 L 16.271484 7.859375 L 16.283203 7.8828125 L 16.515625 8.3203125 L 16.527344 8.3417969 L 16.537109 8.3671875 L 16.722656 8.8261719 L 16.732422 8.8515625 L 16.740234 8.8769531 L 16.875 9.3554688 L 16.882812 9.3828125 L 16.886719 9.4101562 L 16.894531 9.4570312 L 15.970703 9.6132812 L 15.914062 9.6289062 L 15.912109 9.6230469 L 15.910156 9.6230469 L 15.90625 9.6035156 L 15.785156 9.171875 L 15.623047 8.7675781 L 15.414062 8.375 L 15.171875 8.0078125 L 16.001953 7.453125 z M 5.0683594 9.9003906 L 5.6035156 9.9902344 L 6.0566406 10.015625 L 6.03125 10.5 L 6.0546875 10.953125 L 6.1289062 11.392578 L 6.25 11.822266 L 5.2890625 12.09375 L 5.1621094 11.644531 L 5.1542969 11.617188 L 5.1503906 11.589844 L 5.0683594 11.09375 L 5.0644531 11.066406 L 5.0625 11.039062 L 5.0332031 10.527344 L 5.0332031 10.5 L 5.0332031 10.472656 L 5.0625 9.9609375 L 5.0644531 9.9335938 L 5.0683594 9.90625 L 5.0683594 9.9003906 z M 16.007812 10.472656 L 17.003906 10.527344 L 16.974609 11.039062 L 16.972656 11.066406 L 16.96875 11.09375 L 16.884766 11.589844 L 16.880859 11.617188 L 16.873047 11.644531 L 16.740234 12.123047 L 16.732422 12.148438 L 16.722656 12.173828 L 16.541016 12.625 L 15.615234 12.251953 L 15.785156 11.828125 L 15.908203 11.392578 L 15.982422 10.953125 L 16.007812 10.472656 z M 15.199219 12.960938 L 15.9375 13.632812 L 15.267578 14.371094 L 15.234375 14.40625 L 15.199219 14.435547 L 14.396484 15.037109 L 13.798828 14.238281 L 14.5625 13.662109 L 15.199219 12.960938 z M 13.019531 14.625 L 13.074219 14.820312 L 13.425781 15.53125 L 13.375 15.554688 L 13.333984 15.576172 L 13.291016 15.587891 L 12.259766 15.878906 L 12.226562 15.888672 L 12.193359 15.894531 L 11.648438 15.96875 L 11.625 15.972656 L 11.603516 15.974609 L 11.28125 15.988281 L 11.236328 14.988281 L 11.53125 14.976562 L 12.033203 14.90625 L 12.978516 14.636719 L 12.982422 14.634766 L 13.019531 14.625 z"/>
 <circle style="fill:currentColor" class="ColorScheme-Highlight" cx="6" cy="17" r="2"/>
</svg>
